X: 41615
T: Up In The Garret
R: slip jig
M: 9/8
K: Dmajor
B/d/|:AGF EFE EFE|AGF EFE Bcd|AGF EFE EFE|AFD DED FGA:|
|:FDF ~B2A ~B2A|FDF ~B2A Bcd|FDF ~B2A ~B2A|AFD DED FGA:|

